X: 7782
T: Come In From The Rain
R: slide
M: 12/8
K: Eminor
A|:B2E EFE d3 A2G|F2D DEDF2G A2c|
B2E EFE d3 e2f|1 g2e f2^de3 e2A:|2 g2e f2^de3 e2f||
|:gfe b2e gfe b2e|f2d A2g f2g a2f|
gfe b2e gfe b2e|1 f2d B^cd e3 e2f:|2 f2d B^cd e3 e2A||

